X: 4436
T: Bonnie Dainty Davie
R: reel
M: 4/4
K: Gmajor
ge||dBAB G2G2|G2BG dGBG|BcBA GEED|E2ed e2ge|dBAB G2G2|G2BG dGBG|BcBA GEED|E2ed e2ef||
g2g2 fgag|fdd2 fgag|efge agfd|egfd e2ef|g2g2 fgag|fdd2 fgag|efge agfd|egfd g2||

